Sources/FrostedUI/Resources/Icons.xcassets/dna12.imageset/dna-12.svg

<svg width="12" height="12" viewBox="0 0 12 12" fill="none" xmlns="http://www.w3.org/2000/svg" data-fui-icon="true">
  <g clip-path="url(#clip0_882_469)">
    <path
      d="M9.75 0C10.1642 1.59771e-05 10.5 0.335797 10.5 0.75C10.5 3.78202 8.44584 5.20521 7.04785 6.17383C6.83039 6.3245 6.62862 6.46465 6.45312 6.59766C6.21287 6.77975 5.96714 6.95333 5.72363 7.12598C4.93469 7.68533 4.16542 8.23221 3.64648 9H8.34863C8.07981 8.60099 7.74656 8.26019 7.38086 7.9502C7.06533 7.68229 7.02625 7.20839 7.29395 6.89258C7.56173 6.57694 8.03567 6.5382 8.35156 6.80566C9.46814 7.75218 10.4999 9.0837 10.5 11.25C10.4998 11.664 10.164 11.9998 9.75 12C9.33601 11.9999 9.00018 11.664 9 11.25C8.99998 10.9825 8.97861 10.7334 8.94043 10.5H3.05762C3.02016 10.733 3 10.9821 3 11.25C3 11.6642 2.66421 12 2.25 12C1.83579 12 1.5 11.6642 1.5 11.25C1.5 8.39258 3.32488 6.96483 4.70508 5.99902C3.32498 5.03323 1.5 3.60679 1.5 0.75C1.5 0.335786 1.83579 -1.55263e-09 2.25 0C2.66421 7.24234e-08 3 0.335786 3 0.75C3 1.01791 3.02111 1.267 3.05859 1.5H8.94238C8.97985 1.26704 9 1.01785 9 0.75C9 0.335787 9.33579 0 9.75 0ZM3.64551 3C4.22527 3.85804 5.11806 4.44016 6.00098 5.07227C6.09316 5.00628 6.18433 4.93928 6.27637 4.87402C7.06531 4.31467 7.83457 3.7678 8.35352 3H3.64551Z"
      fill="currentColor"
    />
  </g>
  <defs>
    <clipPath id="clip0_882_469"><path fill="currentColor" d="M0 0H12V12H0z" /></clipPath>
  </defs>
</svg>

<svg xmlns="http://www.w3.org/2000/svg" width="12" height="12" fill="none" data-fui-icon="true" viewBox="0 0 12 12"><g clip-path="url(#a)"><path fill="currentColor" d="M9.75 0a.75.75 0 0 1 .75.75c0 3.032-2.054 4.455-3.452 5.424-.218.15-.42.29-.595.424-.24.182-.486.355-.73.528-.788.56-1.558 1.106-2.077 1.874H8.35a5.2 5.2 0 0 0-.968-1.05.751.751 0 0 1 .97-1.144c1.117.946 2.149 2.278 2.149 4.444a.75.75 0 0 1-1.5 0q0-.401-.06-.75H3.058a5 5 0 0 0-.058.75.75.75 0 0 1-1.5 0c0-2.857 1.825-4.285 3.205-5.251C3.325 5.033 1.5 3.607 1.5.75a.75.75 0 0 1 1.5 0q.001.401.059.75h5.883Q9 1.151 9 .75A.75.75 0 0 1 9.75 0M3.646 3c.58.858 1.472 1.44 2.355 2.072q.137-.1.275-.198c.79-.56 1.559-1.106 2.078-1.874z"/></g><defs><clipPath id="a"><path fill="currentColor" d="M0 0h12v12H0z"/></clipPath></defs></svg>
